X:1
T:The Two Flowers
T:The Two Flowers
T:F. W. Root
C:F. W. Root
%%score [ 1 2 3 4 ]
L:1/8
Q:1/4=120
M:2/2
K:G
V:1 treble nm="Soprano" snm="S"
V:2 treble nm="Alto" snm="A"
V:3 treble-8 nm="Tenor" snm="T"
V:4 bass nm="Bass" snm="B"
V:1
!p! d2 d2 c2 z2 | B2 B2 B2 z2 |"^cresc." G2 c2 c2 c2 | B2 B2 A4 | G2 d2 c2 z2 | B2 B2 B2 z2 | %6
w: 1.'Neath a vine|Which does twine|By our door, a|flower was found,|Mod- est fair,|Stand- ing there,|
 G2 c2"^dim." c2 c2 | B6 z2 |!p! d2 d2 c2 z2 | B2 B2 B2 z2 |"^cresc." G2 c2 c2 c2 | B2 B2 A4 | %12
w: Off- 'ring its per-|fume.|By our door,|One flower more|Shed a bless- ing|all a- round:|
 G2 d2 c2 z2 | B2 B2 B2 z2 |"^dim." G2 c2 c2 c2 | B6 z2 |!mf! B2 B2 B2 B2 | A2 c2 B4 | %18
w: Lit- tle Sue,|Lov- ing, true,|In her ear- ly|bloom.|To the flower she|gent- ly said,|
 c2 c2 B2 B2 | B4 G2 z2 |"^cresc." B2 B2 B2 e2 | c2 c2 (e2 d2) |!f! ^c2 B2 A2 B2 | ^c4 d2 A2 | %24
w: Tears her blue eyes|fill- ing,|"Don't you fear the|storm- y blast, *|And the frost so|chill- ing, Sweet|
 A2 z2 z2"^dim." B2 | A2 z2 z2 _B2 | A4 z4 |!pp! c2 z2 z4 |!mp! B2 B2 A2 z2 | G2 G2 F2 z2 | %30
w: flower?" Sweet|flower, Sweet|flower,|Come!|"Come and rest|On my breast,|
 E2 E2!<(! (FE) (FA)!<)! | G2 e2 d4 |"^cresc." d2 d2 c2 z2 | B2 B2 B2 z2 | (G^G)!>(! A2 c2!>)! c2 | %35
w: Pure and love- * ly *|flow- 'ret, come!|Safe from ill,|You shall dwell|in * my hap- py|
 B2 B2 d4 |"^dim." ^c4 =c4 | B2!p! B2 d4 | ^c4!>)!!>(! =c3 z | %39
w: home; Come home,|Flow- 'ret|dear, Come home,|Flow- 'ret,|
!pp!!<(! (!fermata!c4!<)!!>)!!>(! B4) |] %40
w: Come!" *|
V:2
!p! G2 G2 D2 z2 | D2 D2 D2 z2"^cresc." | C2 E2 D2 D2 | D2 G2 F4 | G2 G2 D2 z2 | D2 D2 D2 z2 | %6
w: 2.Now 'tis o'er!|By our door,|That sweet voice no|more is heard;|Ah! what gloom|Fills the home,|
 C2 E2"^dim." D2 D2 | D6 z2 |!p! G2 G2 D2 z2 | D2 D2 D2 z2 |"^cresc." C2 E2 D2 D2 | D2 G2 F4 | %12
w: Since our an- gel's|flight.|Like the flower,|In an hour|Called a- way by|gen- tlest word;|
 G2 G2 D2 z2 | D2 D2 D2 z2 |"^dim." C2 E2 D2 D2 | D6 z2 |!mf! E2 F2 G2 G2 | A2 F2 G4 | %18
w: She is gone!|And we mourn|For her pres- ence|bright.|For the gen- tle|shep- herd said,|
 F2 F2 ^D2 D2 | G4 E2 z2 |"^cresc." E2 F2 G2 B2 | A2 F2 G4 |!f! G2 G2 G2 F2 | (A3 G) F2 F2 | %24
w: "Cold the world and|drear- y,|Flowers so fair can|not en- dure,|Soon do they grow|wea- * ry, Sweet|
 F2 z2 z2"^dim." G2 | F2 z2 z2 G2 | F4 z4 |!pp! D2 z2 z4 |!pp! D8 | B,8 | C4 C4 | %31
w: flower!" Sweet|flower, Sweet|flower,|Come!|"Come,|rest,|love- ly|
 (B,2 A,2) (A,2 D2) |"^cresc." D2 D2 D2 z2 | G2 G2 F2 z2 | E2!>(! E2 (FE)!>)! (FD) | G2 D2 =F4 | %36
w: flow- * 'ret! *|Safe from ill,|You shall dwell|in my hap- * py *|home; come home,|
"^dim." E4 F4 | G2!p! D2 =F4 | E4 F3 z |!pp!!<(! (!fermata!F4!<)!!>)!!>(! G4) |] %40
w: Flow- 'ret|dear, come home,|Flow- 'ret,|Come!" *|
V:3
!p! B2 B2 A2 z2 | G2 G2 F2 z2 |"^cresc." E2 E2 (FE) (FA) | G2 e2 d4 | B2 B2 A2 z2 | G2 G2 F2 z2 | %6
w: 1.'Neath a vine|Which does twine|By our door, * a *|flower was found,|Mod- est fair,|Stand- ing there,|
 E2 E2"^dim." (FE) (FA) | G6 z2 |!p! B2 B2 A2 z2 | G2 G2 F2 z2 |"^cresc." E2 E2 (FE) (FA) | %11
w: Off- 'ring its * per- *|fume.|By our door,|One flower more|Shed a bless- * ing *|
 G2 e2 d4 | B2 B2 A2 z2 | G2 G2 F2 z2 |"^dim." E2 E2 (FE) (FA) | G6 z2 |!mf! G2 A2 B2 e2 | %17
w: all a- round:|Lit- tle Sue,|Lov- ing, true,|In her ear- * ly *|bloom.|To the flower she|
 (dc) (BA) B4 | A2 A2 F2 F2 | (B3 G) E2 z2 |"^cresc." G2 A2 B2 g2 | (fe) (dc) (B2 _B2) | %22
w: gent- * ly * said,|Tears her blue eyes|fill- * ing,|"Don't you fear the|storm- * y * blast, *|
!f! A2 B2 ^c2 d2 | (f3 e) d2 z2 | z2!mf! (e>d) d2 z2 | z2!p! (e>d) d2 z2 | z2!pp! D4 E2 | %27
w: And the frost so|chill- * ing,|Sweet * flower?"|Sweet * flower,|Called she|
 G2 F2 (E2 F2) |!pp! G8 | D8 | E4 D4 | G4 F4 |"^cresc." B2 B2 A2 z2 | G2 G2!f! d4- | %34
w: ten- der- ly. *|"Come,|rest,|love- ly|flow- 'ret!|Safe from ill,|You shall dwell|
 d2!>(! cB A2!>)! A2 | G2 z2 z4 |"^dim." A2 A2 (A^G) (AB) | G2 z2 z4 | A2 A2 (A^G) (AB/) z/ | %39
w: * in my hap- py|home;|Flow- 'ret dear, * Come *|home,|Dear- est flow- * 'ret, *|
!pp!!<(! (!fermata!A4!<)!!>)!!>(! G4) |] %40
w: Come!" *|
V:4
"^Not too slow"!p! G,2 G,2 G,2 z2 | G,2 G,2 B,,2 z2 |"^cresc." C,2 C,2 D,2 D,2 | G,2 G,2 D,4 | %4
w: 2.Now 'tis o'er!|By our door,|That sweet voice no|more is heard;|
 G,2 G,2 G,2 z2 | G,2 G,2 B,,2 z2 | C,2 C,2"^dim." D,2 D,2 | G,,6 z2 |!p! G,2 G,2 G,2 z2 | %9
w: Ah! what gloom|Fills the home,|Since our an- gel's|flight.|Like the flower,|
 G,2 G,2 B,,2 z2 |"^cresc." C,2 C,2 D,2 D,2 | G,2 G,2 D,4 | G,2 G,2 G,2 z2 | G,2 G,2 B,,2 z2 | %14
w: In an hour|Called a- way by|gen- tlest word;|She is gone!|And we mourn|
"^dim." C,2 C,2 D,2 D,2 | G,,6 z2 |!mf! E,2 E,2 E,2 E,2 | E,2 E,2 E,4 | A,2 A,2 B,2 B,2 | %19
w: For her pres- ence|bright.|For the gen- tle|shep- herd said,|"Cold the world and|
 E,4 E,2 z2 |"^cresc." E,2 E,2 E,2 E,2 | A,2 A,2 E,4 |!f! A,2 A,2 A,2 A,2 | A,,4 D,2 D,2 | %24
w: drear- y,|Flowers so fair can|not en- dure,|Soon do they grow|wea- ry, Sweet|
 D,2 z2 z2"^dim." G,2 | D,2 z2 z2 G,,2 |"^(2.)  Called         he   ..." D,4 z4 |!pp! D,2 z2 z4 | %28
w: flower!" Sweet|flower, Sweet|flower,|Come!|
!pp! G,,8 | G,,8 | G,,4 A,,4 | (B,,2 C,2) D,4 |"^cresc." G,2 G,2 G,2 z2 | G,2 G,2 B,,2 z2 | %34
w: "Come,|rest,|love- ly|flow- * 'ret!|Safe from ill,|You shall dwell|
 C,2!>(! C,2 D,2!>)! D,2 | G,2 z2 z2 !^!G,2- | G,2 G,2 D,2 D,2 | G,2 z2 z2!p! !^!G,2- | %38
w: in my hap- py|home; Flow-|* 'ret dear, Come|home, Dear-|
 G,2 G,2 D,2 D,3/2 z/ |!pp!!<(! (!fermata!D,4!<)!!>)!!>(! G,,4) |] %40
w: * est flow- 'ret,|Come!" *|

